svgs/sharp-light/camera-rotate.svg

<svg xmlns="http://www.w3.org/2000/svg" viewBox="0 0 640 512"><!--! Font Awesome Pro 6.6.0 by @fontawesome - https://fontawesome.com License - https://fontawesome.com/license (Commercial License) Copyright 2024 Fonticons, Inc. --><path d="M224 32l192 0 21.3 64L544 96l32 0 0 32 0 320 0 32-32 0L96 480l-32 0 0-32 0-320 0-32 32 0 106.7 0L224 32zm213.3 96l-23.1 0L407 106.1 392.9 64 247.1 64l-14 42.1L225.7 128l-23.1 0L96 128l0 320 448 0 0-320-106.7 0zM224 304l64 0 16 0 0 32-16 0-25.4 0 14.1 14.1C288.2 361.5 303.8 368 320 368c27.8 0 52.3-14.2 66.7-35.8l26.6 17.7C393.3 380.1 359 400 320 400c-24.7 0-48.5-9.8-65.9-27.3L240 358.6l0 25.4 0 16-32 0 0-16 0-64 0-16 16 0zm208-32l-16 0-64 0-16 0 0-32 16 0 25.4 0-14.1-14.1C351.8 214.5 336.2 208 320 208c-27.8 0-52.3 14.2-66.7 35.8l-26.6-17.7C246.7 195.9 281 176 320 176c24.7 0 48.5 9.8 65.9 27.3L400 217.4l0-25.4 0-16 32 0 0 16 0 64 0 16z"/></svg>

<svg xmlns="http://www.w3.org/2000/svg" viewBox="0 0 640 512"><!--! Font Awesome Pro 6.4.0 by @fontawesome - https://fontawesome.com License - https://fontawesome.com/license (Commercial License) Copyright 2023 Fonticons, Inc. --><path d="M224 32H416l21.3 64H544h32v32V448v32H544 96 64V448 128 96H96 202.7L224 32zm213.3 96H414.3L407 106.1 392.9 64H247.1l-14 42.1L225.7 128H202.7 96V448H544V128H437.3zM224 304h64 16v32H288 262.6l14.1 14.1C288.2 361.5 303.8 368 320 368c27.8 0 52.3-14.2 66.7-35.8l26.6 17.7C393.3 380.1 359 400 320 400c-24.7 0-48.5-9.8-65.9-27.3L240 358.6V384v16H208V384 320 304h16zm208-32H416 352 336V240h16 25.4l-14.1-14.1C351.8 214.5 336.2 208 320 208c-27.8 0-52.3 14.2-66.7 35.8l-26.6-17.7C246.7 195.9 281 176 320 176c24.7 0 48.5 9.8 65.9 27.3L400 217.4V192 176h32v16 64 16z"/></svg>
